X:12
T:Christy Barry's No. 1
C:Christy Barry
Z:Philippe Murphy 2006-02-28
R:jig
M:6/8
L:1/8
K:G
G3 BAG | AAB d2e | ged BGG | A3 BGE |
DGG BGG | AAB d2e | ged BGG |1 AGF G2D :|2 AGF G (3B^cd |:
g3 gfg | aag d2e | ged BGG | A3 BGE |
DGG BGG | AAB d2e | ged BGG |1 AGF G (3B^cd :|2 AGF G2D |]
